X: 5269
T: Bronni's Blue Brozzi
R: jig
M: 6/8
K: Bminor
f2B Bdf|Bff fdB|g2B Bdg|Bgg gdB|
a2f fed|faa def|eaa Aac|1 eaa a2g:|2 BcA B3||
Bff dff|Bff fdB|ggB ggd|ggB gdB|
faa Aaa|faa afd|faa Aac|1 aea a2c:|2 BcA B3||

